X:15
T:Boys of the Town No. 1
Z: id:dc-jig-13
M:6/8
L:1/8
K:G Major
D|GFG GBd|edB dBA|GFG GBd|edB AFD|!
GFG GBd|edB g3|edB AGA|BGF G2:|!
B|def gfg|afd edB|def gfg|afd e2B|!
[1 def gfg|afd efg|edB AGA|BGF G2:|!
[2 def gbb|faa efg|edB AGA|BGF G2|]!

